Simply-Black-Circles/scalable/apps/gksu.svg

<?xml version="1.0" encoding="UTF-8" standalone="no"?><svg xmlns:dc="http://purl.org/dc/elements/1.1/" xmlns:cc="http://creativecommons.org/ns#" xmlns:rdf="http://www.w3.org/1999/02/22-rdf-syntax-ns#" xmlns="http://www.w3.org/2000/svg" width="48" height="48" viewBox="0 0 12.7 12.7"><metadata><rdf:RDF><cc:Work><dc:format>image/svg+xml</dc:format><dc:type rdf:resource="http://purl.org/dc/dcmitype/StillImage"/><dc:title/></cc:Work></rdf:RDF></metadata><path d="M6.34.07a6.29 6.29 0 0 0-6.29 6.3 6.29 6.29 0 0 0 6.3 6.28 6.29 6.29 0 0 0 6.28-6.29A6.29 6.29 0 0 0 6.34.07zm-.01.94a5.4 5.4 0 0 1 5.4 5.4 5.4 5.4 0 0 1-5.4 5.41 5.4 5.4 0 0 1-5.41-5.4A5.4 5.4 0 0 1 6.32 1z" fill="#1a1a1a"/><path d="M6.37 1.85c-.92 0-1.67.66-1.67 1.48 0 .3.04.67.23 1.49.08.23.6.71.9 1.02a.66.66 0 0 1-.08.33c-.95.34-2.67.95-2.76 1.34l-.25 2.15c1.67.9 5.6.86 7.22 0-.06-.44-.1-1.7-.16-2.15C9.36 7 8.23 6.7 7.03 6.17a.53.53 0 0 1-.1-.24c.24-.29.8-.86.89-1.11.2-.86.21-1.17.22-1.49 0-.82-.75-1.48-1.67-1.48z" fill="purple" opacity=".75"/></svg>

<?xml version="1.0" encoding="UTF-8" standalone="no"?>
<svg
   xmlns:dc="http://purl.org/dc/elements/1.1/"
   xmlns:cc="http://creativecommons.org/ns#"
   xmlns:rdf="http://www.w3.org/1999/02/22-rdf-syntax-ns#"
   xmlns:svg="http://www.w3.org/2000/svg"
   xmlns="http://www.w3.org/2000/svg"
   xmlns:sodipodi="http://sodipodi.sourceforge.net/DTD/sodipodi-0.dtd"
   xmlns:inkscape="http://www.inkscape.org/namespaces/inkscape"
   width="48"
   height="48"
   viewBox="0 0 12.7 12.7"
   version="1.1"
   id="svg8"
   sodipodi:docname="gksu.svg"
   inkscape:version="0.92.4 (5da689c313, 2019-01-14)">
  <defs
     id="defs12" />
  <sodipodi:namedview
     pagecolor="#ffffff"
     bordercolor="#666666"
     borderopacity="1"
     objecttolerance="10"
     gridtolerance="10"
     guidetolerance="10"
     inkscape:pageopacity="0"
     inkscape:pageshadow="2"
     inkscape:window-width="1087"
     inkscape:window-height="480"
     id="namedview10"
     showgrid="false"
     inkscape:zoom="4.9166667"
     inkscape:cx="2.1355932"
     inkscape:cy="24"
     inkscape:window-x="0"
     inkscape:window-y="25"
     inkscape:window-maximized="0"
     inkscape:current-layer="svg8" />
  <metadata
     id="metadata2">
    <rdf:RDF>
      <cc:Work>
        <dc:format>image/svg+xml</dc:format>
        <dc:type
           rdf:resource="http://purl.org/dc/dcmitype/StillImage" />
        <dc:title></dc:title>
      </cc:Work>
    </rdf:RDF>
  </metadata>
  <path
     d="M 6.34,0.07 A 6.29,6.29 0 0 0 0.05,6.37 6.29,6.29 0 0 0 6.35,12.65 6.29,6.29 0 0 0 12.63,6.36 6.29,6.29 0 0 0 6.34,0.07 Z M 6.33,1.01 a 5.4,5.4 0 0 1 5.4,5.4 5.4,5.4 0 0 1 -5.4,5.41 A 5.4,5.4 0 0 1 0.92,6.42 5.4,5.4 0 0 1 6.32,1 Z"
     id="path4"
     inkscape:connector-curvature="0"
     style="fill:#1a1a1a" />
  <path
     d="M 6.37,1.85 C 5.45,1.85 4.7,2.51 4.7,3.33 4.7,3.63 4.74,4 4.93,4.82 5.01,5.05 5.53,5.53 5.83,5.84 A 0.66,0.66 0 0 1 5.75,6.17 C 4.8,6.51 3.08,7.12 2.99,7.51 L 2.74,9.66 c 1.67,0.9 5.6,0.86 7.22,0 C 9.9,9.22 9.86,7.96 9.8,7.51 9.36,7 8.23,6.7 7.03,6.17 A 0.53,0.53 0 0 1 6.93,5.93 C 7.17,5.64 7.73,5.07 7.82,4.82 8.02,3.96 8.03,3.65 8.04,3.33 8.04,2.51 7.29,1.85 6.37,1.85 Z"
     id="path6"
     inkscape:connector-curvature="0"
     style="opacity:0.75;fill:#800080" />
</svg>
